X:103
T:Steel Hoop, The
M:2/4
L:1/8
B:Thompson's Compleat Collection of 200 Favourite Country Dances, vol. 1 (London, 1757)
Z:Transcribed and edited by Fynnian Titford-Mock, 2007
Z:abc's:AK/Fiddler's Companion
K:G
G G2 D|B B2 G|d d2 B|g2 d2|e c2 e|d B2 d|c A2 c|BGAD|G G2 D|B B2 G|d d2 B|
g2 d2|e c2 e|d B2 c|BAGF|G2 [G,2G2]::g g2 d|g g2 d|g b2 g|g b2 g|g g2 d|g g2 d|
edcB|B2 A2|g g2 d|g g2 d|g b2 g|g b2 g|gded|gded|BAGF|G2 [G,2G2]:|

